X: 130160
T: Musical Crow 
C: BB
R: reel
Q: 1/8=350
M: 4/4
L: 1/8
K: G
"G"DEGd BG (3GFG|"Em"EGBG "Am7"AGEG|"G"DEGd BGBd|"Am7"ecAG "D7"FdcA|
"G"DEGd BG (3GFG|"Em"EGBG "Am7"AGEC|"G"B,DGD "C"EGce|"D"dAFA "G"G4 :|
"Em"edBd eg (3gfg|"C"eg (3gfg "Am"agef|"G"gedB ABGE|"D"DEGF "G"G3 B|
"Em"edBd eg (3gfg|"C"eg (3gfg "Am"agef|"G"gfed "Em"eBdB|"D"AFDF "G"G4 :|
